X:215
T:Martin Wynne's No. 1
Z: id:dc-reel-196
M:C
L:1/8
K:D Major
B|AFF2 GEE2|DFF2 EFDB|ABDE F3B|ABde fedB|!
AFF2 GEE2|DFF2 EFDB|ABDE F3B|ABde fdd:|!
e|f2af gfeg|fedf edBc|dBAF DEFB|ABde fee2|!
f2af gfeg|fedf edBc|dBAF DEFB|ABde fdd:|!

